X:108
T:Cosa Buidhe \'Arda Dearga
T:Yellow Legs, High Legs, Red Legs
R:slip jig
H:Another 4 part version in O'Neill's and O'Farrell's as "Yellow Legs"
B:Goodman manuscripts
Z:id:hn-slipjig-108
M:9/8
L:1/8
K:D
FEF DFD G2E | FEF DFD GED | FEF DFD G2E | GEE c2A GED :|
|: GEG A2D A2D | GEG A2D GED | GEG A2D A2D | GEE c2A GED :|

